packages/foundations/assets/icons/functional/images/audio & video/skip_backward_28_filled.svg

<svg width="28" height="28" viewBox="0 0 28 28" fill="none" xmlns="http://www.w3.org/2000/svg">
<g clip-path="url(#clip0_2202_568)">
<path fill-rule="evenodd" clip-rule="evenodd" d="M21.6365 19.9395V8.06053C21.6365 7.13253 20.8675 6.36353 19.9665 6.36353C19.6215 6.36353 19.2765 6.46953 18.9855 6.65553L10.4735 12.6215C10.0235 12.9395 9.75752 13.4435 9.75752 14.0005C9.75752 14.5575 10.0225 15.0605 10.4735 15.3795L18.9855 21.3445C19.2765 21.5305 19.6215 21.6365 19.9655 21.6365C20.8945 21.6365 21.6365 20.8675 21.6365 19.9395ZM8.06052 19.9395V8.06053C8.06187 7.94879 8.04085 7.83792 7.99871 7.73443C7.95657 7.63094 7.89415 7.53692 7.81514 7.45791C7.73613 7.3789 7.64211 7.31648 7.53862 7.27434C7.43513 7.2322 7.32426 7.21118 7.21252 7.21253C7.10071 7.21105 6.98973 7.23197 6.88612 7.27405C6.78251 7.31613 6.68838 7.37852 6.60926 7.45755C6.53014 7.53657 6.46764 7.63064 6.42543 7.73419C6.38323 7.83775 6.36218 7.94871 6.36352 8.06053V19.9405C6.36352 20.4165 6.73552 20.7885 7.21252 20.7885C7.32434 20.7899 7.4353 20.7688 7.53886 20.7266C7.64241 20.6844 7.73648 20.6219 7.8155 20.5428C7.89453 20.4637 7.95692 20.3695 7.999 20.2659C8.04108 20.1623 8.062 20.0513 8.06052 19.9395Z" fill="#1A1C1F"/>
</g>
<defs>
<clipPath id="clip0_2202_568">
<rect width="28" height="28" fill="white"/>
</clipPath>
</defs>
</svg>

<svg xmlns="http://www.w3.org/2000/svg" width="28" height="28" fill="none"><g clip-path="url(#a)"><path fill="#1A1C1F" fill-rule="evenodd" d="M21.637 19.94V8.06c0-.927-.77-1.696-1.67-1.696-.345 0-.69.106-.982.292l-8.511 5.966c-.45.318-.716.822-.716 1.379 0 .556.265 1.06.716 1.379l8.511 5.964c.291.186.637.293.98.293.93 0 1.672-.77 1.672-1.698m-13.576 0V8.06a.84.84 0 0 0-.848-.847.84.84 0 0 0-.85.848v11.88c0 .476.373.848.85.848a.837.837 0 0 0 .848-.85" clip-rule="evenodd"/></g><defs><clipPath id="a"><path fill="#fff" d="M0 0h28v28H0z"/></clipPath></defs></svg>
